!! 00000] TT[WS
!!!OTL: Wan diao
!!!ARE: Asia, China, Shanxi Xixian
!! Ethnic Group: Han
!! WII, 111 (2)
!!!SCT: J0567
!!!YEM: Copyright 1995, estate of Helmut Schaffrath.
**kern
*ICvox
*Ivox
*M2/4
*k[f#c#g#]
*A:
{8.ee
16cc#
8.b
16cc#
=1
8a
8f#
4b
=2
8ee
16cc#
16b
8ee
16cc#
16b
=3
8a
16a
16f#
4b}
=4
{8ee
8ee
8ee
8ee
=5
8f#
16b
16b
16b
16a
16g#
16f#
=6
16e
16e
16e
16e
8b
16g#
16f#
=7
2e}
==
!!!AGN: Xiaodiao. Qingge, Sichun
!!!ONB: ESAC (Essen Associative Code) Database: CHINA
!!!AMT: simple duple
!!!AIN: vox
!!!EED: Helmut Schaffrath
!!!EEV: 1.0
*-
